X: 41479
T: Tyred Fiddle, The
R: hornpipe
M: 4/4
K: Dmajor
|:A>G|F>dA>d F2 (3AFD|G>d (3Bcd G2 (3BGE|(3cde (3def g>ec>e|(3dfe (3dcB (3Ace (3A^G=G|
F2 A>d F2 A>d|G2 B>d G2 B>d|c>d (3def g>e (3edc|1 d2 (3A^GA D2:|2 d2 (3FGA [D2d2]||
|:(3a^g=g|f>dc>d A2 (3dc=c|B>GF>=F E2 e>d|c>A^G>A B2 (3FGA|(3dfe (3dcB A>a (3a^g>=g|
f>d (3Bcd A2 c>d|B>GF>=F E>fe>d|c2 (3A^GA B>F (3FGA|1 d2 (3f^ef d2:|2 d2 A2 D2||

